api/mockups/Collabshot Logo.svg

<svg width="86" height="26" viewBox="0 0 86 26" fill="none" xmlns="http://www.w3.org/2000/svg">
<rect width="86" height="26" fill="black"/>
<g clip-path="url(#clip0)">
<path d="M28.1846 15.1184C26.6948 15.1184 25.5378 14.06 25.5378 12.5095C25.5378 10.9517 26.6948 9.90054 28.1846 9.90054C29.1979 9.90054 29.8331 10.4223 30.2036 11.0273L29.455 11.4205C29.213 10.997 28.7215 10.687 28.1846 10.687C27.1864 10.687 26.4453 11.4432 26.4453 12.5095C26.4453 13.5606 27.1864 14.3319 28.1846 14.3319C28.7215 14.3319 29.213 14.0143 29.455 13.5984L30.2112 13.9765C29.8255 14.5818 29.1979 15.1184 28.1846 15.1184ZM34.03 15.1184C32.5176 15.1184 31.4514 14.0146 31.4514 12.5095C31.4514 11.0046 32.5176 9.90054 34.03 9.90054C35.5349 9.90054 36.6087 11.0046 36.6087 12.5095C36.6087 14.0146 35.5349 15.1184 34.03 15.1184ZM34.03 14.3322C35.0433 14.3322 35.7012 13.5458 35.7012 12.5098C35.7012 11.4662 35.0433 10.6873 34.03 10.6873C33.0092 10.6873 32.3588 11.4662 32.3588 12.5098C32.3588 13.5458 33.0092 14.3322 34.03 14.3322ZM41.2594 15.0279H38.1514V9.98405H39.0361V14.2491H41.2594V15.0279ZM45.842 15.0279H42.734V9.98405H43.6187V14.2491H45.842V15.0279ZM51.9219 15.0279H50.9161L50.5456 14.0524H48.2312L47.8607 15.0279H46.855L48.8362 9.98405H49.9403L51.9219 15.0279ZM50.296 13.2736L49.3886 10.8688L48.4811 13.2736H50.296V13.2736ZM55.7709 15.0279H53.2225V9.98405H55.7029C56.633 9.98405 57.1397 10.5588 57.1397 11.2696C57.1397 11.8973 56.7313 12.3283 56.2625 12.4266C56.8066 12.5098 57.238 13.0467 57.238 13.6592C57.238 14.4457 56.7238 15.0279 55.7709 15.0279V15.0279ZM55.529 12.0636C55.9751 12.0636 56.2322 11.7989 56.2322 11.4133C56.2322 11.0427 55.9755 10.7629 55.529 10.7629H54.1073V12.0636H55.529V12.0636ZM55.5668 14.2491C56.0432 14.2491 56.3305 13.9844 56.3305 13.5458C56.3305 13.1677 56.0655 12.8425 55.5668 12.8425H54.1073V14.2491H55.5668ZM60.6182 15.1184C59.6881 15.1184 59.0151 14.7856 58.561 14.3168L59.0604 13.6286C59.4007 13.9992 59.9528 14.3319 60.656 14.3319C61.3823 14.3319 61.6621 13.9765 61.6621 13.6362C61.6621 12.5775 58.728 13.2354 58.728 11.3827C58.728 10.5433 59.454 9.90054 60.5656 9.90054C61.3445 9.90054 61.9873 10.1577 62.4486 10.6114L61.9495 11.2693C61.5487 10.8685 61.0118 10.687 60.4824 10.687C59.9685 10.687 59.6355 10.9441 59.6355 11.3146C59.6355 12.2599 62.5699 11.6776 62.5699 13.5533C62.5696 14.3927 61.9715 15.1184 60.6182 15.1184V15.1184ZM68.5281 15.0279H67.6434V12.8198H65.0197V15.0279H64.1349V9.98405H65.0197V12.0409H67.6434V9.98405H68.5281V15.0279ZM72.7175 15.1184C71.2051 15.1184 70.1389 14.0146 70.1389 12.5095C70.1389 11.0046 71.2051 9.90054 72.7175 9.90054C74.2224 9.90054 75.2965 11.0046 75.2965 12.5095C75.2965 14.0146 74.2224 15.1184 72.7175 15.1184ZM72.7175 14.3322C73.7308 14.3322 74.3887 13.5458 74.3887 12.5098C74.3887 11.4662 73.7308 10.6873 72.7175 10.6873C71.6966 10.6873 71.0463 11.4662 71.0463 12.5098C71.0463 13.5458 71.6963 14.3322 72.7175 14.3322ZM78.7974 15.0279H77.9127V10.7629H76.3851V9.98405H80.3249V10.7629H78.7974V15.0279V15.0279Z" fill="white"/>
<path d="M11.0674 5.55137C11.7713 5.145 12.8823 5.145 13.5862 5.55137L18.1478 8.18494C18.8517 8.59132 19.4074 9.55335 19.4074 10.3664V15.6336C19.4074 16.4467 18.852 17.4084 18.1478 17.8151L13.5862 20.4486C12.8823 20.855 11.7713 20.855 11.0674 20.4486L6.50583 17.8151C5.8019 17.4084 5.24658 16.4463 5.24658 15.6336V10.3664C5.24658 9.55368 5.8019 8.59165 6.50616 8.18494L11.0674 5.55137V5.55137Z" stroke="url(#paint0_linear)" stroke-width="1.5"/>
<path d="M12.4739 10.425C10.949 10.425 9.76733 11.4925 9.76733 13.0552C9.76733 14.6183 10.949 15.6855 12.4739 15.6855C13.3508 15.6855 13.9376 15.3045 14.3187 14.8392C14.395 14.7554 14.4256 14.6485 14.4256 14.542C14.4256 14.2829 14.2046 14.0692 13.9301 14.0692C13.7779 14.0692 13.6253 14.1304 13.5184 14.2445C13.2363 14.5571 12.855 14.7248 12.4739 14.7248C11.5513 14.7248 10.8806 14.0159 10.8806 13.0552C10.8806 12.0945 11.5517 11.3857 12.4739 11.3857C12.855 11.3857 13.2285 11.5688 13.5184 11.8736C13.6253 11.988 13.77 12.0488 13.915 12.0488C14.1971 12.0488 14.4335 11.8354 14.4335 11.5609C14.4335 11.4619 14.3953 11.3475 14.3266 11.2637C13.9376 10.7985 13.3504 10.425 12.4739 10.425Z" fill="white"/>
</g>
<defs>
<linearGradient id="paint0_linear" x1="14.3137" y1="19.9755" x2="9.31922" y2="5.47939" gradientUnits="userSpaceOnUse">
<stop stop-color="#0066D0"/>
<stop offset="1" stop-color="#10BB7A"/>
</linearGradient>
<clipPath id="clip0">
<rect width="75.3253" height="16" fill="white" transform="translate(5 5)"/>
</clipPath>
</defs>
</svg>

<svg fill="none" height="26" width="86" xmlns="http://www.w3.org/2000/svg" xmlns:xlink="http://www.w3.org/1999/xlink"><linearGradient id="a" gradientUnits="userSpaceOnUse" x1="14.314" x2="9.319" y1="19.976" y2="5.479"><stop offset="0" stop-color="#0066d0"/><stop offset="1" stop-color="#10bb7a"/></linearGradient><clipPath id="b"><path d="m0 0h75.325v16h-75.325z" transform="translate(5 5)"/></clipPath><path d="m0 0h86v26h-86z" fill="#000"/><g clip-path="url(#b)"><path d="m28.185 15.118c-1.49 0-2.647-1.058-2.647-2.609 0-1.557 1.157-2.608 2.647-2.608 1.013 0 1.648.521 2.019 1.126l-.749.394a1.49 1.49 0 0 0 -1.27-.734c-.999 0-1.74.756-1.74 1.822 0 1.052.741 1.823 1.74 1.823.537 0 1.028-.318 1.27-.734l.756.378c-.385.606-1.013 1.142-2.026 1.142zm5.845 0c-1.512 0-2.579-1.103-2.579-2.609 0-1.504 1.067-2.608 2.579-2.608 1.505 0 2.579 1.104 2.579 2.608 0 1.506-1.074 2.61-2.579 2.61zm0-.786c1.013 0 1.671-.786 1.671-1.822 0-1.044-.658-1.823-1.671-1.823-1.02 0-1.671.78-1.671 1.823 0 1.036.65 1.822 1.671 1.822zm7.23.696h-3.11v-5.044h.885v4.265h2.223v.779zm4.582 0h-3.108v-5.044h.885v4.265h2.223zm6.08 0h-1.006l-.37-.976h-2.316l-.37.976h-1.006l1.981-5.044h1.104l1.982 5.044zm-1.626-1.754-.907-2.405-.908 2.405zm5.475 1.754h-2.549v-5.044h2.48c.931 0 1.438.575 1.438 1.286 0 .627-.409 1.058-.877 1.157.544.083.975.62.975 1.232 0 .787-.514 1.369-1.467 1.369zm-.242-2.964c.446 0 .703-.265.703-.65 0-.371-.257-.651-.703-.651h-1.422v1.3h1.422zm.038 2.185c.476 0 .764-.265.764-.703 0-.378-.266-.704-.764-.704h-1.46v1.407zm5.051.87c-.93 0-1.603-.333-2.057-.802l.5-.688c.34.37.892.703 1.595.703.726 0 1.006-.356 1.006-.696 0-1.058-2.934-.4-2.934-2.253 0-.84.726-1.482 1.838-1.482.778 0 1.421.257 1.883.71l-.5.658c-.4-.4-.937-.582-1.467-.582-.514 0-.846.257-.846.628 0 .945 2.934.363 2.934 2.238 0 .84-.599 1.565-1.952 1.565zm7.91-.091h-.885v-2.208h-2.623v2.208h-.885v-5.044h.885v2.057h2.623v-2.057h.885zm4.19.09c-1.513 0-2.58-1.103-2.58-2.609 0-1.504 1.067-2.608 2.58-2.608 1.504 0 2.578 1.104 2.578 2.608 0 1.506-1.074 2.61-2.579 2.61zm0-.786c1.013 0 1.67-.786 1.67-1.822 0-1.044-.657-1.823-1.67-1.823-1.021 0-1.672.78-1.672 1.823 0 1.036.65 1.822 1.671 1.822zm6.08.696h-.885v-4.265h-1.528v-.779h3.94v.779h-1.528v4.265z" fill="#fff"/><path d="m11.067 5.551c.704-.406 1.815-.406 2.52 0l4.56 2.634c.705.406 1.26 1.368 1.26 2.181v5.268c0 .813-.555 1.774-1.26 2.181l-4.56 2.634c-.705.406-1.816.406-2.52 0l-4.561-2.634c-.704-.407-1.26-1.369-1.26-2.181v-5.268c0-.812.556-1.774 1.26-2.181z" stroke="url(#a)" stroke-width="1.5"/><path d="m12.474 10.425c-1.525 0-2.707 1.067-2.707 2.63s1.182 2.63 2.707 2.63c.877 0 1.464-.38 1.845-.846a.433.433 0 0 0 .107-.297.485.485 0 0 0 -.496-.473.567.567 0 0 0 -.412.175c-.282.313-.663.48-1.044.48-.923 0-1.593-.708-1.593-1.669 0-.96.67-1.67 1.593-1.67.381 0 .755.184 1.044.489a.544.544 0 0 0 .397.175c.282 0 .519-.214.519-.488a.49.49 0 0 0 -.107-.297c-.39-.465-.977-.839-1.853-.839z" fill="#fff"/></g></svg>
